X: 36928
T: Shores Of Lough Breda, The
R: reel
M: 4/4
K: Cmajor
GF|:E3G FDEF|Gc ~c2 BGFD|Gc ~c2 Bcdc|BGGF DEFD|
E3G FDEF|Gc ~c2 BGFD|E/F/G cA Bcdc|1 BGFD CG,CD:|2 BGFD CDEF||
Gc ~c2 Bcdc|BGGF DGFD|G,CEG cGEG|~F2 DC B,CDc|
~B3d cAdc|BGGF DGFD|G,CEG cGEG|FDB,D C2 zc|
BcdB cAdc|BGGF DGFD|G,CEG cGEG|~F2 DC B,CDc|
~B3d cAdc|BGGF DGFD|G,CEG cGEG|FDB,D CG,CD||

